X: 2
T: The Hag At The Churn
R: jig
M: 6/8
L: 1/8
K: Emix
|:B2A BEE|B2A Bed|B2A BEE|FGA FGA:|
|Bec d3|Bee fga|Bec d2B|AFA BFE|
Bec d3|Bee fga|baf edB|AFA BFE||


Tune 829	Setting 25101

